img/icon/ref-2.svg

<svg width="34" height="34" viewBox="0 0 34 34" fill="none" xmlns="http://www.w3.org/2000/svg">
<path d="M20.2052 21.8818L16.1981 25.8889L13.7928 23.4836M11.6666 12.3138H9.88879C8.41679 12.3138 7.22212 13.5085 7.22212 14.9805V29.4445M22.3333 12.3138H24.111C25.583 12.3138 26.7777 13.5085 26.7777 14.9805V29.4445M28.3137 5.6863C34.5621 11.9347 34.5621 22.0653 28.3137 28.3137C22.0653 34.5621 11.9347 34.5621 5.6863 28.3137C-0.5621 22.0653 -0.5621 11.9347 5.6863 5.6863C11.9347 -0.5621 22.0653 -0.5621 28.3137 5.6863ZM20.3866 14.7369H13.615C12.5377 14.7369 11.6666 13.8658 11.6666 12.7902V11.8356C11.6666 10.76 12.5377 9.8889 13.6132 9.8889H20.3848C21.4621 9.8889 22.3333 10.76 22.3333 11.8356V12.7885C22.3333 13.8658 21.4621 14.7369 20.3866 14.7369Z" stroke="url(#paint0_linear)" stroke-width="2" stroke-linecap="round" stroke-linejoin="round"/>
<defs>
<linearGradient id="paint0_linear" x1="1" y1="1" x2="1" y2="33" gradientUnits="userSpaceOnUse">
<stop stop-color="#5986FB"/>
<stop offset="1" stop-color="#2D4EF5"/>
</linearGradient>
</defs>
</svg>

<svg width="34" height="34" fill="none" xmlns="http://www.w3.org/2000/svg"><path d="M20.205 21.882l-4.007 4.007-2.405-2.405m-2.126-11.17H9.889a2.668 2.668 0 0 0-2.667 2.666v14.465m15.111-17.131h1.778a2.668 2.668 0 0 1 2.667 2.666v14.465m1.536-23.759c6.248 6.249 6.248 16.38 0 22.628-6.249 6.248-16.38 6.248-22.628 0-6.248-6.249-6.248-16.38 0-22.628 6.249-6.248 16.38-6.248 22.628 0zm-7.927 9.05h-6.772a1.946 1.946 0 0 1-1.948-1.946v-.954c0-1.076.87-1.947 1.946-1.947h6.772c1.077 0 1.948.871 1.948 1.947v.953a1.947 1.947 0 0 1-1.946 1.948z" stroke="url(#paint0_linear)" stroke-width="2" stroke-linecap="round" stroke-linejoin="round"/><defs><linearGradient id="paint0_linear" x1="1" y1="1" x2="1" y2="33" gradientUnits="userSpaceOnUse"><stop stop-color="#5986FB"/><stop offset="1" stop-color="#2D4EF5"/></linearGradient></defs></svg>
